assets/images/cart.svg

<svg height="35" viewBox="0 0 36 35" width="36" xmlns="http://www.w3.org/2000/svg" xmlns:xlink="http://www.w3.org/1999/xlink"><linearGradient id="a" x1="0%" x2="100%" y1="50%" y2="50%"><stop offset="0" stop-color="#4800ac"/><stop offset="1" stop-color="#ff0080"/></linearGradient><path d="m42.8777576 25.5259557h-2.8980378l-5.9147902-13.8896314c-.227547-.5322284-.8434666-.7792215-1.375695-.5516746s-.7792216.8434665-.5516747 1.375695l5.5865788 13.065611h-19.3365458l5.5865788-13.065611c.2275469-.5322285-.0194462-1.1481481-.5516747-1.3756951-.5322284-.2275469-1.148148.0194462-1.375695.5516747l-5.9357399 13.8896314h-2.9888197c-.933857.0060132-1.8166597.4270692-2.4090537 1.1490073-.592394.721938-.8329996 1.6699558-.6565814 2.5870173l2.6606082 13.8896314c.2871594 1.4782953 1.5806592 2.546457 3.0865847 2.5488766h24.3714499c1.5059255-.0024196 2.7994254-1.0705813 3.0865847-2.5488766l2.6815579-13.8896314c.1764182-.9170615-.0641874-1.8650793-.6565814-2.5870173-.592394-.7219381-1.4751967-1.1429941-2.4090537-1.1490073zm-9.2318214 2.0949671-.7891043 3.9315548h-9.7765128l-.7891043-3.9315548zm-21.0195026 3.9315548-.5167586-2.6885411c-.0586596-.3075308.0233139-.6251783.2234632-.8659197.1989235-.241956.4968436-.3806429.8100539-.377094h2.094967l-.5377082 1.2639634c-.2275469.5322284.0194463 1.1481481.5516747 1.375695.5322284.227547 1.1481481-.0194462 1.375695-.5516746l.8868694-2.0949671h2.6606081l.7891043 3.9315548zm.4050269 2.094967h8.3240024l.7891042 3.9315548h-8.3798681zm2.7932894 9.9580766c-.5021537-.0012171-.9327997-.3586239-1.0265338-.8519532l-.593574-3.0796016h8.3798681l.7402217 3.9245716zm14.6647693 0h-5.0069713l-.7611713-3.938538h6.5223307zm1.2011144-6.0265218h-7.4092001l-.7891042-3.9315548h8.9105931zm9.5670161 5.1745686c-.0937341.4933293-.5243801.8507361-1.0265338.8519532h-7.6605962l.7891043-3.9315548h8.4427171zm.9217855-5.1815518h-8.3798681l.7891042-3.9315548h8.3798682zm1.6829569-8.7150629-.5167586 2.688541h-8.3798681l.7891042-3.9315548h2.7932894l.8868694 2.0949671c.1471971.3442914.46689.5839011.8386537.6285704s.7391182-.112388.9636848-.4120102c.2245666-.2996221.2722282-.6962892.1250312-1.0405806l-.5377082-1.2639634h2.0530677c.3132102-.0035489.6111304.135138.8100539.377094.1927588.244238.2669638.561528.2025135.8659197z" fill="url(#a)" transform="translate(-10 -11)"/></svg>

<?xml version="1.0" encoding="UTF-8"?>
<svg width="36px" height="35px" viewBox="0 0 36 35" version="1.1" xmlns="http://www.w3.org/2000/svg" xmlns:xlink="http://www.w3.org/1999/xlink">
    <!-- Generator: Sketch 52.3 (67297) - http://www.bohemiancoding.com/sketch -->
    <title>Shape</title>
    <desc>Created with Sketch.</desc>
    <defs>
        <linearGradient x1="0%" y1="50%" x2="100%" y2="50%" id="linearGradient-1">
            <stop stop-color="#4800AC" offset="0%"></stop>
            <stop stop-color="#FF0080" offset="100%"></stop>
        </linearGradient>
    </defs>
    <g id="Symbols" stroke="none" stroke-width="1" fill="none" fill-rule="evenodd">
        <g id="Cart/empty" transform="translate(-10.000000, -11.000000)" fill="url(#linearGradient-1)" fill-rule="nonzero">
            <g id="Cart">
                <path d="M42.8777576,25.5259557 L39.9797198,25.5259557 L34.0649296,11.6363243 C33.8373826,11.1040959 33.221463,10.8571028 32.6892346,11.0846497 C32.1570062,11.3121966 31.910013,11.9281162 32.1375599,12.4603447 L37.7241387,25.5259557 L18.3875929,25.5259557 L23.9741717,12.4603447 C24.2017186,11.9281162 23.9547255,11.3121966 23.422497,11.0846496 C22.8902686,10.8571027 22.274349,11.1040958 22.046802,11.6363243 L16.1110621,25.5259557 L13.1222424,25.5259557 C12.1883854,25.5319689 11.3055827,25.9530249 10.7131887,26.674963 C10.1207947,27.396901 9.8801891,28.3449188 10.0566073,29.2619803 L12.7172155,43.1516117 C13.0043749,44.629907 14.2978747,45.6980687 15.8038002,45.7004883 L40.1752501,45.7004883 C41.6811756,45.6980687 42.9746755,44.629907 43.2618348,43.1516117 L45.9433927,29.2619803 C46.1198109,28.3449188 45.8792053,27.396901 45.2868113,26.674963 C44.6944173,25.9530249 43.8116146,25.5319689 42.8777576,25.5259557 Z M33.6459362,27.6209228 L32.8568319,31.5524776 L23.0803191,31.5524776 L22.2912148,27.6209228 L33.6459362,27.6209228 Z M12.6264336,31.5524776 L12.109675,28.8639365 C12.0510154,28.5564057 12.1329889,28.2387582 12.3331382,27.9980168 C12.5320617,27.7560608 12.8299818,27.6173739 13.1431921,27.6209228 L15.2381591,27.6209228 L14.7004509,28.8848862 C14.472904,29.4171146 14.7198972,30.0330343 15.2521256,30.2605812 C15.784354,30.4881282 16.4002737,30.241135 16.6278206,29.7089066 L17.51469,27.6139395 L20.1752981,27.6139395 L20.9644024,31.5454943 L12.6264336,31.5524776 Z M13.0314605,33.6474446 L21.3554629,33.6474446 L22.1445671,37.5789994 L13.764699,37.5789994 L13.0314605,33.6474446 Z M15.8247499,43.6055212 C15.3225962,43.6043041 14.8919502,43.2468973 14.7982161,42.753568 L14.2046421,39.6739664 L22.5845102,39.6739664 L23.3247319,43.598538 L15.8247499,43.6055212 Z M30.4895192,43.6055212 L25.4825479,43.6055212 L24.7213766,39.6669832 L31.2437073,39.6669832 L30.4895192,43.6055212 Z M31.6906336,37.5789994 L24.2814335,37.5789994 L23.4923293,33.6474446 L32.4029224,33.6474446 L31.6906336,37.5789994 Z M41.2576497,42.753568 C41.1639156,43.2468973 40.7332696,43.6043041 40.2311159,43.6055212 L32.5705197,43.6055212 L33.359624,39.6739664 L41.8023411,39.6739664 L41.2576497,42.753568 Z M42.1794352,37.5720162 L33.7995671,37.5720162 L34.5886713,33.6404614 L42.9685395,33.6404614 L42.1794352,37.5720162 Z M43.8623921,28.8569533 L43.3456335,31.5454943 L34.9657654,31.5454943 L35.7548696,27.6139395 L38.548159,27.6139395 L39.4350284,29.7089066 C39.5822255,30.053198 39.9019184,30.2928077 40.2736821,30.337477 C40.6454458,30.3821463 41.0128003,30.225089 41.2373669,29.9254668 C41.4619335,29.6258447 41.5095951,29.2291776 41.3623981,28.8848862 L40.8246899,27.6209228 L42.8777576,27.6209228 C43.1909678,27.6173739 43.488888,27.7560608 43.6878115,27.9980168 C43.8805703,28.2422548 43.9547753,28.5595448 43.890325,28.8639365 L43.8623921,28.8569533 Z" id="Shape"></path>
            </g>
        </g>
    </g>
</svg>
